!!!OTL: Das Lied vom Sterben (3-74), S. 207
!!!id: P1047
**kern
*clefG2
*k[b-]
*F:
{8f
8f
8g
=1
*M3/4
4a
4a
8g
8g
=2
8f}
=3
{8f
8f
8a
=4
4cc
4cc
8dd
8dd
=5
8cc}
=6
{8a
16b-
16a
8g
=7
8f
8a
4cc
16cc
16b-
8b-
=8
8a}
==
*-
!!!minrhy: 16
!!!meters: 2/4 3/4 ]  ZZ[3
!!!cut: Das Lied vom Sterben (3-74), S. 207
!!!reg: Lothringen
!!!trd: PINCK, Louis: Verklingende Weisen, Bd3, Metz 1933
!!!rhy1: X_X_X_  X__X__X_X_  X_   (x2)
!!!rhy2: X_X_X_  X__X__X_X_  X_
!!!key: P1047  16  F 2/4 3/4 ]  ZZ[3
!!!mod: SECHSTONSKALA DUR ?]  AMBITUS[6
!!!kad: 153
!!!akz: 31_55_13_
!!!fot: 'a__b__c__
!!!for: 'a__a__b__
!!!fok: '^__/__S__
!! PHRAS[AUFTAKTIG]
!!!fkt: Abschied, Tod
!! LOTH VKL
!! PR[13] 2K[9] 2G[9] 3K[2] 3G[2] 4A[9] 4Ü[0] 5A[0] 6K[0] 6G[0]
!! 7K[4] 7G[0] 8A[0] MEHR[0] SI[36] ABS[45] SR[18] SP[18]
!! ST[12] 2k[16] 2g[27] 3k[2] 3g[0] 4d[4] 4ü[0] 5d[2] 6k[0] 6g[0]
!! 7k[0] 7g[0] 8d[0] mehr[0] si[51] dm[-15] sr[42] sp[9]
!! 1F[45] 2F[29] 3F[14] 4F[0] LF[0] 2P[12] 3P[0] 4P[0] TRI[0] DF[4] AB[49]
!! TF[0] U3K[0] U3[2] U4[0] U4Ü[0] U5[13] U6K[0] U6[0] U7K[0] U7[7]
!! N1[20] N2K[0] N2[22] N3K[0] N3[20] N4[13] N4Ü[0] N5[4] N6K[0] N6[0]
!!!n7k: 0] N7[0] O1[0] O2K[0] O2[0] O3K[0] O3[0] HÖ[0
